X: 611
T: Dün Gece Bir Bezm-i Meyde
C: Şerif İçli
O: Turkey
F: http://compmusic.upf.edu/node/140
N: buselik--sarki--agiraksak--dun_gece--serif_icli
N: makam= buselik
N: form= sarki
N: usul= agiraksak = 9/4
M: 9/4
L: 1/16
K: C    
Q: 1/4=72
%%MIDI tuningsystem comma53
G2c4B2 cd{e}c{d}B c2d2 e2{f}e{f}d cBcd e4 e/f/e/g/f/g/e/f/ e4  | 
w:  ARANAĞME  | 
ee/g/ef a.a2g g.g2f f.f2e e.e2d d.d2c BcdB cgfe dcBA  | 
w:   | 
G2c4d2 e2d4f2 e3d c2B2 A2{c}B{c}A {B}G4 z4  | \
w:   | 
G2c2 d2e2 f3/2e/fa g2f2 e3d cBA^G A6ef edcd  | 
w:   | 
G2c4B2 cd{e}c{d}B c2d2 e2{f}e{f}d cBcd e4 e/f/e/g/f/g/e/f/ e4  | 
w:  ARANAĞME  | 
ee/g/ef a.a2g g.g2f f.f2e e.e2d d.d2c BcdB cgfe dcBA  | 
w:   | 
G2c4d2 e2d4f2 e3d c2B2 A2{c}B{c}A {B}G4 z4  | \
w:   | 
G2c2 d2e2 f3/2e/fa g2f2 e3d cBA^G A6ga gfef  | 
w:   | 
e3/2d/ef edcB A2G4c2 c6B2 cdcB c2d2 e2d2  | 
w:  *  *  *  *  *  *  *  *  *  Dün  ge ce *  bir   | 
{e}d2e2 dccB c2e2 d2{g}f2 {f}e2d2 c2B2 cBcd c2B2 A2^G2  | 
w:  *  *  *  *  *  *  *  *  bezm_ *  *  i  *  mey *  *  *  de   | 
A4 zcBA G2G4c2 c6B2 cdc2 d4 e4  | \
w:  *  SAZ *  *  *  âh  e dip  *  an  | 
e2d2 g2fe e2e2 d2g2 f2{g}e4e2 e6d2 c2d2  | 
w:  *  *  *  *  *  *  mış  *  *  *  *  *  be ni   SAZ  | 
e3f edcd e2d4a2 g2a2 g2f2 e3f g2a2 g2f2  | \
w:  *  *  *  *  *  *  *  Var sın_ öğ *  *  *  ren  | 
e2d2 c2B4A4B2 A2B4A2 AGG^3/4F G4 A2B2  | 
w:  *  *  *  *  sin  na sıl *  *  mış   | 
c8 c2c4c2 c3/2d/cB A4 B4 c4 d4  | \
w:  *  *  âh  e dip  *  *  *  *  yâd_  | 
efed cBA2 z2c2 B2d2 dccB BAA^G A6d2 c2d2  | 
w:  *  *  *  *  *  *  *  ey *  *  *  *  *  *  *  *  le *  mek   SAZ  | 
e3f edcd e2d4a2 g2a2 g2f2 e3f g2a2 g2f2  | \
w:  *  *  *  *  *  *  *  Var sın_ öğ *  *  *  ren  | 
e2d2 c2B4A4B2 A2B4A2 AGG^3/4F G4 A2B2  | 
w:  *  *  *  *  sin  na sıl *  *  mış   | 
c8 c2c4c2 c3/2d/cB A4 B4 c4 d4  | \
w:  *  *  âh  e dip  *  *  *  *  yâd_  | 
efed cBA2 z2c2 B2d2 dccB BAA^G A6ag g^ff^e  | 
w:  *  *  *  *  *  *  *  ey *  *  *  *  *  *  *  *  le *  mek   SAZ  | 
^f3g f^ede f2d4e2 f8 f2g2 f2e2 d2^c2  | \
w:  *  *  *  *  *  *  *  Söz  bu  ya  bir   | 
d3/2e/d^c _1/4B^AB2 z2B4B2 d2=cd c2d2 e2{f}ed d4 g4  | 
w:  *  *  *  *  *  *  *  baş ka sın *  *  *  *  dan   | 
g^f_7/8ed (3ddcc_1/4B c2G4c2 c6B2 cdc2 d4 =e4  | \
w:  *  *  *  *  *  *  *  *  *  *  çok ça  kıs *  kan  | 
e2d2 g2fe e2e2 d2g2 f2{g}e4e2 e6d2 c2d2  | 
w:  *  *  *  *  *  *  mış  *  *  *  *  *  be ni   SAZ  | 
e3f edcd e2d4a2 g2a2 g2f2 e3f g2a2 g2f2  | \
w:  *  *  *  *  *  *  *  Var sın_ öğ *  *  *  ren  | 
e2d2 c2B4A4B2 A2B4A2 AGG^3/4F G4 A2B2  | 
w:  *  *  *  *  sin  na sıl *  *  mış   | 
c8 c2c4c2 c3/2d/cB A4 B4 c4 d4  | \
w:  *  *  âh  e dip  *  *  *  *  yâd_  | 
efed cBA2 z2c2 B2d2 dccB BAA^G A6d2 c2d2  | 
w:  *  *  *  *  *  *  *  ey *  *  *  *  *  *  *  *  le *  mek   SAZ  | 
e3f edcd e2d4a2 g2a2 g2f2 e3f g2a2 g2f2  | \
w:  *  *  *  *  *  *  *  Var sın_ öğ *  *  *  ren  | 
e2d2 c2B4A4B2 A2B4A2 AGG^3/4F G4 A2B2  | 
w:  *  *  *  *  sin  na sıl *  *  mış   | 
c8 c2c4c2 c3/2d/cB A4 B4 c4 d4  | \
w:  *  *  âh  e dip  *  *  *  *  yâd_  | 
efed cBA2 z2c2 B2d2 dccB BAA^G A8 z4  | 
w:  KARAR  | 
|


